**kern	**silbe	**kern	**silbe
*ICvox	*	*ICvox	*
*E:	*	*E:	*
*M4/4	*	*M4/4	*
*clefG2	*	*clefF4	*
r;	.	r;	.
=1	=1	=1	=1
4r	.	1r	.
8f#q	_	.	.
[4g#	I	.	.
4g#]	_	.	.
8g#q	_	.	.
4e	been	.	.
=2	=2	=2	=2
4.e	chea-	1r	.
8e	-ted	.	.
4f#	_	.	.
4r	.	.	.
=3	=3	=3	=3
4r	.	1r	.
8f#q	_	.	.
[4g#	been	.	.
4g#]	_	.	.
8g#q	_	.	.
4e	_	.	.
=4	=4	=4	=4
4.e	trea-	1r	.
8e	-ted	.	.
12c#	_	.	.
6B	_	.	.
4r	.	.	.
=5	=5	=5	=5
4r	.	4r	.
8f#q	_	8c#q	_
[4g#	When	[4B [4e	When
4g#]	_	4B] 4e]	_
12g#	will	12B [12e	will
6e	_	6c# 6e]	_
=6	=6	=6	=6
2e	I	2A 2c#	I
[4f#	_	[4B [4d#	_
6f#]	_	6B] 6d#]	_
12f#	be	12B 12d#	be
=7	=7	=7	=7
6e	_	6G# 6B	_
[12e	loved?	[12G# [12B	loved?
2.e]	_	2.G#] 2.B]	_
=8	=8	=8	=8
1r	.	1r	.
=9	=9	=9	=9
4r	.	4r	.
8f#q	_	8G#q 8c#q	_
[4g#	I've	[4B [4e	I've
4g#]	_	4B] 4e]	_
8g#q	_	.	.
4e	been	4r	.
=10	=10	=10	=10
4.e	put	4.A 4.c#	put
[8f#	down,	[8B [8d#	down,
4f#]	_	4B] 4d#]	_
4r	.	4r	.
=11	=11	=11	=11
4r	.	4r	.
8g#q	_	8G#q 8c#q	_
[4b	I've	[4B [4e	I've
4b]	_	4B] 4e]	_
8g#q	_	.	.
4e	been	4r	.
=12	=12	=12	=12
4.e	pushed	4.A 4.c#	pushed
[8f#	'round,	[8B [8d#	'round,
4f#]	_	4B] 4d#]	_
4r	.	4r	.
=13	=13	=13	=13
4r	.	4r	.
8f#q	_	8c#q	_
[4g#	When	[4B [4e	When
4g#]	_	4B] 4e]	_
12g#	will	12B [12e	will
6e	_	6c# 6e]	_
=14	=14	=14	=14
2e	I	2A 2c#	I
[4f#	_	[4B [4d#	_
6f#]	_	6B] 6d#]	_
12f#	be	12B 12d#	be
=15	=15	=15	=15
6e	_	6G# 6B	_
[12e	loved	[12G# [12B	loved?
2.e_	_	2.G#] 2.B]	_
=16	=16	=16	=16
4e]	_	1r	.
4r	.	.	.
2r	.	.	.
=17	=17	=17	=17
4r	.	1r	.
8e	When	.	.
8c#	I	.	.
4.e	find	.	.
8e	a	.	.
=18	=18	=18	=18
8f#q	_	.	.
4g#	_	1r	.
8f#	man,	.	.
8e	_	.	.
2r	.	.	.
=19	=19	=19	=19
4r	.	1r	.
8e	that	.	.
8e	I	.	.
8e	want	.	.
8B	for	.	.
8c#	_	.	.
8B	_	.	.
=20	=20	=20	=20
4B	mine,	1r	.
4r	.	.	.
4r	.	.	.
8r	.	.	.
8B	he	.	.
=21	=21	=21	=21
4e	al-	1r	.
8e	-ways	.	.
8e	breaks	.	.
4r	.	.	.
8r	.	.	.
8e	my	.	.
=22	=22	=22	=22
4f#	heart	2r	.
8f#	in	.	.
8f#	two,	.	.
12e	_	4r	.
6d#	_	.	.
8r	.	8r	.
8B	it	8E	it
=23	=23	=23	=23
8g#	hap-	8A 8c#	hap-
4.b	-pens	4.c# 4.e	-pens
12g#	e	12c# 12e	e
12f#	_	12B 12d#	_
[12e	_	[12A [12c#	_
6e]	_	6A] 6c#]	_
12g#	v'ry	12A 12c#	v'ry
=24	=24	=24	=24
8f#	_	8B 8d#	_
[8f#	time!	[8B [8d#	time!
2.f#_	_	2.B_ 2.d#_	_
=25	=25	=25	=25
2.f#]	_	2.B] 2.d#]	_
4r	.	4r	.
=26	=26	=26	=26
4r	.	4r	.
8f#q	_	8G#q 8c#q	_
[4g#	I've	[4B [4e	I've
4g#]	_	4B] 4e]	_
8g#q	_	.	.
4e	been	4r	.
=27	=27	=27	=27
4.e	made,	4.A 4.c#	made
8eq	_	.	.
[8f#	_	[8B [8d#	blue,
4f#]	_	4B] 4d#]	_
4r	.	4r	.
=28	=28	=28	=28
4r	.	4r	.
8g#q	_	8G#q 8c#q	_
[4b	I've	[4B [4e	I've
4b]	_	4B] 4e]	_
8g#q	_	.	.
4e	been	4r	.
=29	=29	=29	=29
4.e	lied,	4.A 4.c#	lied
8eq	_	.	.
[8f#	_	[8B [8d#	to,
4f#]	_	4B] 4d#]	_
4r	.	4r	.
=30	=30	=30	=30
4r	.	4r	.
8f#q	_	8c#q	_
[4g#	When	[4B [4e	When
4g#]	_	4B] 4e]	_
12g#	will	12B [12e	will
6e	_	6c# 6e]	_
=31	=31	=31	=31
2e	I	2A 2c#	I
[4f#	_	[4B [4d#	_
6f#]	_	6B] 6d#]	_
8f#q	_	8Bq 8d#q	_
[12e	_	[12G# [12B	_
=32	=32	=32	=32
6e]	_	6G#] 6B]	_
[12e	loved?	[12G# [12B	loved?
2.e]	_	2.G#] 2.B]	_
=33	=33	=33	=33
1r	.	1r	.
=34	=34	=34	=34
1r	.	1r	.
=35	=35	=35	=35
1r	.	1r	.
=36	=36	=36	=36
1r	.	1r	.
=37	=37	=37	=37
1r	.	1r	.
=38	=38	=38	=38
1r	.	1r	.
=39	=39	=39	=39
1r	.	1r	.
=40	=40	=40	=40
1r	.	1r	.
=41	=41	=41	=41
1r	.	1r	.
=42	=42	=42	=42
4r	.	1r	.
8e	When	.	.
8c#	I	.	.
4.e	find	.	.
8e	a	.	.
=43	=43	=43	=43
8aq	_	.	.
4b	_	1r	.
12g#	man,	.	.
12f#	_	.	.
[12e	_	.	.
8e]	_	.	.
8r	.	.	.
4r	.	.	.
=44	=44	=44	=44
*clefF4	*	*	*
4r	.	1r	.
8e	that	.	.
8e	I	.	.
8e	want	.	.
8B	for	.	.
8c#	_	.	.
8B	_	.	.
=45	=45	=45	=45
12B	mine,	1r	.
12A	_	.	.
[12G#	_	.	.
8G#]	_	.	.
8r	.	.	.
4r	.	.	.
8r	.	.	.
8B	he	.	.
=46	=46	=46	=46
*clefG2	*	*	*
4e	al-	1r	.
8e	-ways	.	.
[8e	breaks	.	.
8e]	_	.	.
8r	.	.	.
8r	.	.	.
8e	my	.	.
=47	=47	=47	=47
8f#q	_	.	.
8g#	_	2r	.
8f#	_	.	.
8f#	in	.	.
8f#	two,	.	.
12e	_	4r	.
6d#	_	.	.
8r	.	8r	.
8B	it	8E	it
=48	=48	=48	=48
8g#	hap-	8A 8c#	hap-
8g#q	_	8Aq 8c#q	_
4.b	_	4.c# 4.e	_
12g#	e	12c# 12e	e
12f#	_	12B 12d#	_
[12e	_	[12A [12c#	_
6e]	_	6A] 6c#]	_
12g#	v'ry	12A 12c#	v'ry
=49	=49	=49	=49
8f#	_	8B 8d#	_
[8f#	time,	[8B [8d#	time!
2f#_	_	2B_ 2d#_	_
12f#]	_	12B] 12d#]	_
12g#	_	12c# 12e	_
12f#	_	12B 12d#	_
=50	=50	=50	=50
12g#	_	12c# 12e	_
[6b	_	[6d# [6f#	_
4b_	_	4d#_ 4f#_	_
8b]	_	4d#] 4f#]	_
[8cc#	oh!	.	.
8cc#]	_	4r	.
8b	_	.	.
=51	=51	=51	=51
4r	.	4r	.
8f#q	_	8G#q 8c#q	_
[4g# [4b	I've	[4B [4e	I've
4g#] 4b]	_	4B] 4e]	_
8g#q 8~bq	_	8~Bq 8~eq	_
4e 4~a	been	4~A 4~c#	been
=52	=52	=52	=52
4.e 4.a	chea-	4.A 4.c#	chea-
8eq 8aq	_	.	.
[8f# [8b	-ted	[8B [8d#	-ted
4f#] 4b]	_	4B] 4d#]	_
4r	.	4r	.
=53	=53	=53	=53
4r	.	4r	.
8f#q 8aq	_	8G#q 8c#q	_
[4g# [4b	Been	[4B [4e	Been
4g#] 4b]	_	4B] 4e]	_
8g#q 8bq	_	.	.
4e 4a	mis-	4A 4~c#	mis-
=54	=54	=54	=54
4.e 4.a	-trea-	4.A 4.c#	-trea-
8eq 8aq	_	.	.
[8f# [8b	-ted,	[8B [8d#	-ted
4f#] 4b]	_	4B] 4d#]	_
4r	.	4r	.
=55	=55	=55	=55
4r	.	4r	.
8f#q 8aq	_	8c#q	_
[4g# [4b	When	[4B [4e	When
4g#] 4b]	_	4B] 4e]	_
12g# 12b	will	12B [12e	will
6e 6a	_	6c# 6e]	_
=56	=56	=56	=56
2e 2a	I	2A 2c#	I
[4f# [4b	_	[4B [4d#	_
6f#] 6b]	_	6B] 6d#]	_
[8f#q 8bq	_	8Bq 8d#q	_
[12e [12g#	be	[12G# [12B	be
=57	=57	=57	=57
6e] 6g#]	_	6G#] 6B]	_
[12e [12g#	loved?	[12G# [12B	loved?
2e_ 2g#_	_	2G#_ 2B_	_
8e] 8g#]	_	8G#] 8B]	_
8r	.	8r	.
=58	=58	=58	=58
1r	.	1r	.
=59	=59	=59	=59
4r	.	4r	.
8f#q 8aq	_	8c#q	_
[4g# [4b	When	[4B [4e	When
4g#] 4b]	_	4B] 4e]	_
12g# 12b	will	12B [12e	will
6e 6a	_	6c# 6e]	_
=60	=60	=60	=60
2e 2a	I	2A 2c#	I
[4f# [4b	_	[4B [4d#	_
6f#] 6b]	_	6B] 6d#]	_
[8f#q 8bq	_	8Bq 8d#q	_
[12e [12g#	be	[12G# [12B	be
=61	=61	=61	=61
6e] 6g#]	_	6G#] 6B]	_
[12e [12g#	loved?	[12G# [12B	loved?
2e_ 2g#_	_	2G#_ 2B_	_
8e] 8g#]	_	8G#] 8B]	_
8r	.	8r	.
=62	=62	=62	=62
2r	.	1r	.
4e	Tell	.	.
4e	me,	.	.
=63	=63	=63	=63
4r	.	4r	.
8g#q	_	8c#q	_
[4b	When	[4B [4e	When
4b]	_	4B] 4e]	_
12g#	will	12B	will
12f#	_	6c#	_
12e	_	.	.
=64	=64	=64	=64
2e	I	2A 2c#	I
[4f#	be	[4B [4d#	be
16f#]	_	16B] 16d#]	_
16g#	_	16c# 16e	_
16f#	_	16B 16d#	_
16e	_	16A 16c#	_
=65	=65	=65	=65
4r	.	4r	.
[2.e	loved?	4A [4c#	loved?
.	.	16.A 16.c#]	_
.	.	32A 32d	_
.	.	16.A 16.c#	_
.	.	32A 32d	_
.	.	[8A 8c#	_
.	.	8A] 8B	_
=66	=66	=66	=66
4e_	_	8G [8B	_
.	.	[8G# 8B_	_
2.e]	_	2.G#] 2.B]	_
=67	=67	=67	=67
1r	.	1r	.
r;	.	r;	.
r;	.	r;	.
*-	*-	*-	*-
!!!ENC: Nathaniel Condit-Schultz
!!!MBID: 70a4d2a4-3c9a-4f6b-909e-88de3cc52b40
